X: 32618
T: Plausible, The
R: jig
M: 6/8
K: Adorian
G|:EAA AGA|cde ~g3|age dBG|~A3 GED|
EAA AGA|cde ~g3|age dBG|1 BAA A2G:|2 BAA A2B||
|:cBc ece|gec edB|G3 BGB|eBe dBG|
Bcc ece|gec edc|dee ede|1 cAA A2B:|2 cAA Ace||
|:a2a aba|gee e2d|efg edc|ABB GAB|
cBc dBd|ede g2b|age dBG|1 BAA A2b:|2 BAA A2G||

